styles/3/Numix/128/places/custom-folder-download.svg

<?xml version="1.0" encoding="UTF-8" standalone="no"?>
<!-- Created with Inkscape (http://www.inkscape.org/) -->

<svg
   xmlns:dc="http://purl.org/dc/elements/1.1/"
   xmlns:cc="http://creativecommons.org/ns#"
   xmlns:rdf="http://www.w3.org/1999/02/22-rdf-syntax-ns#"
   xmlns:svg="http://www.w3.org/2000/svg"
   xmlns="http://www.w3.org/2000/svg"
   xmlns:sodipodi="http://sodipodi.sourceforge.net/DTD/sodipodi-0.dtd"
   xmlns:inkscape="http://www.inkscape.org/namespaces/inkscape"
   width="128"
   height="128"
   id="svg2"
   version="1.1"
   inkscape:version="0.91 r"
   sodipodi:docname="custom-folder-download.svg"
   inkscape:export-filename="/media/Data/Main/Visuals/Icons/Numix/Desktop/repos/numix-wiki/Gjorgi/Numix-folders/48/New/folder-144.png"
   inkscape:export-xdpi="270"
   inkscape:export-ydpi="270">
  <defs
     id="defs4" />
  <sodipodi:namedview
     id="base"
     pagecolor="#ffffff"
     bordercolor="#666666"
     borderopacity="1.0"
     inkscape:pageopacity="0.0"
     inkscape:pageshadow="2"
     inkscape:zoom="4.9170839"
     inkscape:cx="39.264157"
     inkscape:cy="65.946953"
     inkscape:document-units="px"
     inkscape:current-layer="layer1"
     showgrid="true"
     inkscape:window-width="1280"
     inkscape:window-height="998"
     inkscape:window-x="0"
     inkscape:window-y="0"
     inkscape:window-maximized="1"
     showguides="true"
     inkscape:guide-bbox="true">
    <inkscape:grid
       type="xygrid"
       id="grid2985"
       empspacing="5"
       visible="true"
       enabled="true"
       snapvisiblegridlinesonly="true" />
  </sodipodi:namedview>
  <metadata
     id="metadata7">
    <rdf:RDF>
      <cc:Work
         rdf:about="">
        <dc:format>image/svg+xml</dc:format>
        <dc:type
           rdf:resource="http://purl.org/dc/dcmitype/StillImage" />
        <dc:title />
      </cc:Work>
    </rdf:RDF>
  </metadata>
  <g
     inkscape:label="Layer 1"
     inkscape:groupmode="layer"
     id="layer1"
     transform="translate(0,-924.3622)">
    <path
       inkscape:connector-curvature="0"
       id="path5"
       d="m 12,948.3622 104,0 0,40 -104,0 z m 0,0"
       style="fill:replacecolour2;fill-opacity:1;fill-rule:nonzero;stroke:none" />
    <path
       inkscape:connector-curvature="0"
       id="path7"
       d="m 24,948.3622 c 0,-4 0,-8 5.81641,-8 l 20.36719,0 c 5.8164,0 5.8164,4 5.8164,8 l 0,4 -32,0 z m 0,0"
       style="fill:replacecolour2;fill-opacity:1;fill-rule:nonzero;stroke:none" />
    <path
       inkscape:connector-curvature="0"
       id="path9"
       d="m 20,956.3622 88,0 0,19.87109 -88,0 z m 0,0"
       style="fill:#94979e;fill-opacity:1;fill-rule:nonzero;stroke:none" />
    <path
       inkscape:connector-curvature="0"
       id="path11"
       d="m 28,952.3622 76,0 0,52 -76,0 z m 0,0"
       style="fill:#d7d7d9;fill-opacity:1;fill-rule:nonzero;stroke:none" />
    <path
       inkscape:connector-curvature="0"
       id="path13"
       d="m 24,960.3622 76,0 0,52 -76,0 z m 0,0"
       style="fill:#f8f8f8;fill-opacity:1;fill-rule:nonzero;stroke:none" />
    <path
       inkscape:connector-curvature="0"
       id="path15"
       d="m 4,964.3622 120,0 -8.57031,72 -102.85937,0 z m 0,0"
       style="fill:replacecolour1;fill-opacity:1;fill-rule:nonzero;stroke:none" />
    <path
       style="opacity:1.0;fill:replacecolour3;fill-opacity:1;stroke:none"
       d="M 64 50 C 61.784 50 60 51.784 60 54 L 60 74 L 52 74 C 48 74 48 74 52 78 L 60 86 C 64 90 64 90 68 86 L 76 78 C 80 74 80 74 76 74 L 68 74 L 68 54 C 68 51.784 66.216 50 64 50 z M 39.84375 78 C 37.706522 78 36 79.784 36 82 L 36 98 L 36 98.1875 C 36 98.303204 36.020754 98.418231 36.03125 98.53125 C 36.046034 98.647303 36.069649 98.762364 36.09375 98.875 C 36.227759 99.587909 36.544479 100.20377 37.03125 100.71875 C 37.065799 100.75753 37.089005 100.80643 37.125 100.84375 C 37.172629 100.89018 37.231187 100.92469 37.28125 100.96875 C 37.414438 101.0931 37.538386 101.20822 37.6875 101.3125 C 37.706498 101.32517 37.73076 101.33139 37.75 101.34375 C 38.146348 101.6104 38.6138 101.80493 39.09375 101.90625 C 39.255294 101.9416 39.425256 101.95255 39.59375 101.96875 C 39.68126 101.97485 39.754699 102 39.84375 102 C 39.896194 102.00192 39.947044 102 40 102 L 40.15625 102 L 88 102 C 88.311625 102 88.615471 101.96988 88.90625 101.90625 C 89.3862 101.80493 89.853652 101.6104 90.25 101.34375 C 90.418808 101.23529 90.569738 101.09989 90.71875 100.96875 C 90.757805 100.93229 90.806173 100.91307 90.84375 100.875 C 90.893135 100.82796 90.922003 100.76821 90.96875 100.71875 C 91.086389 100.58672 91.212773 100.46019 91.3125 100.3125 C 91.680037 99.793405 91.907433 99.191477 91.96875 98.53125 C 91.983159 98.418142 91.994833 98.303447 92 98.1875 L 92 97.8125 L 92 82 C 92 79.784 90.293478 78 88.15625 78 L 87.84375 78 C 85.706522 78 84 79.784 84 82 L 84 94 L 44 94 L 44 82 C 44 79.784 42.293478 78 40.15625 78 L 39.84375 78 z "
       transform="translate(0,924.3622)"
       id="rect2989" />
  </g>
</svg>

<!-- Created with Inkscape (http://www.inkscape.org/) -->
<svg xmlns="http://www.w3.org/2000/svg" viewBox="0 0 128 128">
 <g transform="translate(0,-924.3622)">
  <path d="m 12 948.36 104 0 0 40 -104 0 z m 0 0" style="fill:replacecolour2;fill-opacity:1;stroke:none;fill-rule:nonzero"/>
  <path d="m 24 948.36 c 0 -4 0 -8 5.816 -8 l 20.367 0 c 5.816 0 5.816 4 5.816 8 l 0 4 -32 0 z m 0 0" style="fill:replacecolour2;fill-opacity:1;stroke:none;fill-rule:nonzero"/>
  <path d="m 20 956.36 88 0 0 19.871 -88 0 z m 0 0" style="fill:#94979e;fill-opacity:1;stroke:none;fill-rule:nonzero"/>
  <path d="m 28 952.36 76 0 0 52 -76 0 z m 0 0" style="fill:#d7d7d9;fill-opacity:1;stroke:none;fill-rule:nonzero"/>
  <path d="m 24 960.36 76 0 0 52 -76 0 z m 0 0" style="fill:#f8f8f8;fill-opacity:1;stroke:none;fill-rule:nonzero"/>
  <path d="m 4 964.36 120 0 -8.57 72 -102.86 0 z m 0 0" style="fill:replacecolour1;fill-opacity:1;stroke:none;fill-rule:nonzero"/>
  <path d="m 64 50 c -2.216 0 -4 1.784 -4 4 l 0 20 l -8 0 c -4 0 -4 0 0 4 l 8 8 c 4 4 4 4 8 0 l 8 -8 c 4 -4 4 -4 0 -4 l -8 0 l 0 -20 c 0 -2.216 -1.784 -4 -4 -4 z m -24.16 28 c -2.137 0 -3.844 1.784 -3.844 4 l 0 16 l 0 0.188 c 0 0.116 0.021 0.231 0.031 0.344 c 0.015 0.116 0.038 0.231 0.063 0.344 c 0.134 0.713 0.451 1.329 0.938 1.844 c 0.035 0.039 0.058 0.088 0.094 0.125 c 0.048 0.046 0.106 0.081 0.156 0.125 c 0.133 0.124 0.257 0.239 0.406 0.344 c 0.019 0.013 0.043 0.019 0.063 0.031 c 0.396 0.267 0.864 0.461 1.344 0.563 c 0.162 0.035 0.332 0.046 0.5 0.063 c 0.088 0.006 0.161 0.031 0.25 0.031 c 0.052 0.002 0.103 0 0.156 0 l 0.156 0 l 47.844 0 c 0.312 0 0.615 -0.03 0.906 -0.094 c 0.48 -0.101 0.947 -0.296 1.344 -0.563 c 0.169 -0.108 0.32 -0.244 0.469 -0.375 c 0.039 -0.036 0.087 -0.056 0.125 -0.094 c 0.049 -0.047 0.078 -0.107 0.125 -0.156 c 0.118 -0.132 0.244 -0.259 0.344 -0.406 c 0.368 -0.519 0.595 -1.121 0.656 -1.781 c 0.014 -0.113 0.026 -0.228 0.031 -0.344 l 0 -0.375 l 0 -15.813 c 0 -2.216 -1.707 -4 -3.844 -4 l -0.313 0 c -2.137 0 -3.844 1.784 -3.844 4 l 0 12 l -40 0 l 0 -12 c 0 -2.216 -1.707 -4 -3.844 -4 l -0.313 0 z" transform="translate(0,924.3622)" style="fill:replacecolour3;opacity:1;fill-opacity:1;stroke:none"/>
 </g>
</svg>
